packages/react/src/components/base/Icon/assets/icon-list-plus.svg

<svg width="24" height="24" viewBox="0 0 24 24" xmlns="http://www.w3.org/2000/svg" fill="currentColor"> <path d="M1.87494 4.87549C1.87494 4.57712 1.99347 4.29097 2.20444 4.07999C2.41542 3.86901 2.70157 3.75049 2.99994 3.75049H19.4999C19.7983 3.75049 20.0845 3.86901 20.2954 4.07999C20.5064 4.29097 20.6249 4.57712 20.6249 4.87549C20.6249 5.17386 20.5064 5.46001 20.2954 5.67098C20.0845 5.88196 19.7983 6.00049 19.4999 6.00049H2.99994C2.70157 6.00049 2.41542 5.88196 2.20444 5.67098C1.99347 5.46001 1.87494 5.17386 1.87494 4.87549ZM2.99994 12.0005H19.4999C19.7983 12.0005 20.0845 11.882 20.2954 11.671C20.5064 11.46 20.6249 11.1739 20.6249 10.8755C20.6249 10.5771 20.5064 10.291 20.2954 10.08C20.0845 9.86901 19.7983 9.75049 19.4999 9.75049H2.99994C2.70157 9.75049 2.41542 9.86901 2.20444 10.08C1.99347 10.291 1.87494 10.5771 1.87494 10.8755C1.87494 11.1739 1.99347 11.46 2.20444 11.671C2.41542 11.882 2.70157 12.0005 2.99994 12.0005ZM12.7499 15.7505H2.99994C2.70157 15.7505 2.41542 15.869 2.20444 16.08C1.99347 16.291 1.87494 16.5771 1.87494 16.8755C1.87494 17.1739 1.99347 17.46 2.20444 17.671C2.41542 17.882 2.70157 18.0005 2.99994 18.0005H12.7499C13.0483 18.0005 13.3345 17.882 13.5454 17.671C13.7564 17.46 13.8749 17.1739 13.8749 16.8755C13.8749 16.5771 13.7564 16.291 13.5454 16.08C13.3345 15.869 13.0483 15.7505 12.7499 15.7505ZM20.9999 15.7505H19.8749V14.6255C19.8749 14.3271 19.7564 14.041 19.5454 13.83C19.3345 13.619 19.0483 13.5005 18.7499 13.5005C18.4516 13.5005 18.1654 13.619 17.9544 13.83C17.7435 14.041 17.6249 14.3271 17.6249 14.6255V15.7505H16.4999C16.2016 15.7505 15.9154 15.869 15.7044 16.08C15.4935 16.291 15.3749 16.5771 15.3749 16.8755C15.3749 17.1739 15.4935 17.46 15.7044 17.671C15.9154 17.882 16.2016 18.0005 16.4999 18.0005H17.6249V19.1255C17.6249 19.4239 17.7435 19.71 17.9544 19.921C18.1654 20.132 18.4516 20.2505 18.7499 20.2505C19.0483 20.2505 19.3345 20.132 19.5454 19.921C19.7564 19.71 19.8749 19.4239 19.8749 19.1255V18.0005H20.9999C21.2983 18.0005 21.5845 17.882 21.7954 17.671C22.0064 17.46 22.1249 17.1739 22.1249 16.8755C22.1249 16.5771 22.0064 16.291 21.7954 16.08C21.5845 15.869 21.2983 15.7505 20.9999 15.7505Z"/> </svg>

<svg viewBox="0 0 24 24" xmlns="http://www.w3.org/2000/svg" aria-hidden="true" fill="currentColor"><path d="M1.875 4.875A1.125 1.125 0 0 1 3 3.75h16.5a1.125 1.125 0 1 1 0 2.25H3a1.125 1.125 0 0 1-1.125-1.125M3 12.001h16.5a1.125 1.125 0 1 0 0-2.25H3A1.125 1.125 0 1 0 3 12m9.75 3.75H3A1.125 1.125 0 1 0 3 18h9.75a1.125 1.125 0 1 0 0-2.25m8.25 0h-1.125v-1.125a1.125 1.125 0 1 0-2.25 0v1.125H16.5a1.125 1.125 0 0 0 0 2.25h1.125v1.124a1.125 1.125 0 0 0 2.25 0V18H21a1.125 1.125 0 1 0 0-2.25"/></svg>
